!!!OTL: In Festo S Ioannis
**kern
*staff1
=--
*clefC1
*k[b-]
1.g
2a
1.b-
2cc
=-
2dd
2dd
1ee
1dd
1b-
=-
1cc
1b-
1dd
2cc
2b-
=-
1a
1g
1b-
2cc
2cc
=-
2b-
2dd
0cc
0a
=-
!!linebreak:original
1b-
1b-
1b-
0a
0b-
1cc
=-
!LO:TX:Y=-44:t=P
2cc
2dd
1.ee
2ee
1dd
=-
!LO:TX:Y=-44:t=P
1b-
1a
1.b-
2b-
=-
!!linebreak:original
2cc
2b-
1a
1g
2b-
2b-
=-
2cc
2cc
1b-
1dd
1cc
=-
!LO:TX:Y=-40:t=P
2a
2a
1b-
1cc
2cc
2dd
=-
!LO:TX:Y=-41:t=P
1.ee
4dd
4cc
0dd
!!linebreak:original
=-
*k[]
00r
=-
!LO:TX:Y=-197:t=P
!LO:TX:Y=123:t=P
1cc
2cc
2dd
2ee
2dd
2cc
2b
=-
2a
2g
1a
1b
1cc
=-
!LO:TX:Y=-40:t=P
0cc
1b
1cc
=-
!!linebreak:original
1dd
1cc
1cc
2cc
2b
=-
2a
2g
2cc
2b
1a
1g
=-
!LO:TX:Y=-34:t=P
!LO:TX:Y=-33:t=P
1cc
1cc
1b
1cc
=-
1a
1g
0a
=-
0g
0g
!!pagebreak:original
=-
*clefC4
1d
1e
2f
2e
2f
2d
2c
2e
2d
2c
=-
2d
2B
0A
2f
2d
2c
2A
1F
=-
!LO:TX:Y=119:t=P
1G
2f
2e
2d
2c
1d
!!linebreak:original
=-
!LO:TX:Y=-43:t=P
1d
1e
2f
2e
2f
2d
=-
2c
2e
4d
4c
4d
4B
1A
2f
2d
=-
!LO:TX:Y=-40:t=P
2c
2A
1F
1G
2f
2e
!!linebreak:original
=-
!LO:TX:Y=-42:t=P
2d
2c
1d
2F
4G
4G
2F
2D
=-
!LO:TX:Y=-203:t=P
2F
2G
2A
2B
1c
2c
2d
=-
2c
2A
2F
2G
4f
4e
4d
4c
0d
0d
=-=
*-
!!title: @{OTL}, @{GTL}, ed. @{ENC}
!!!pag:
!!!GTL: Hymnbook C
!!!EFL: 
!!!YEM: Creative Commons CC/BY/NC/SA 4.0
!!!ENC: Marcin Konik
!!!END: 2015-0m-dd
!!!EED: Marcin Konik
!!!EEV: 
!!!ONB: Encoded in vim by Marcin Konik
!!!CharacterEncoding: utf-8
!!!RDF**kern: l=long note in original notation
!!!RDF**kern: i=editorial accidental
!!muse2ps: z14jc180F
!!!COM: Anonim
!!!CDT: [?]
!!!TXO: Polish
!!!ODT: 
!!!GTL: Hymnbook C
!!!ARL: Opactwo św. Wojciecha, Staniątki 
!!!voices:	1
